public/assets/icon_photo.svg

<svg width="25" height="25" viewBox="0 0 25 25" fill="none" xmlns="http://www.w3.org/2000/svg">
<g filter="url(#filter0_b)">
<circle cx="12.5" cy="12.5" r="12.5" fill="#3F3F3F" fill-opacity="0.59"/>
</g>
<path d="M18.3261 8.34773H16.8652L16.0587 7.13034C15.7543 6.67382 15.2217 6.3999 14.6739 6.3999H11.3261C10.7783 6.3999 10.2457 6.67382 9.9413 7.13034L9.13478 8.34773H7.67391C6.74565 8.34773 6 9.09338 6 10.0216V15.926C6 16.8543 6.74565 17.5999 7.67391 17.5999H18.3261C19.2543 17.5999 20 16.8543 20 15.926V10.0216C20 9.09338 19.2543 8.34773 18.3261 8.34773ZM13 16.2303C10.9152 16.2303 9.22609 14.5412 9.22609 12.4564C9.22609 10.3716 10.9152 8.69773 13 8.69773C15.0848 8.69773 16.7739 10.3869 16.7739 12.4716C16.7739 14.5412 15.0848 16.2303 13 16.2303ZM18.113 10.7064C18.0978 10.7064 18.0826 10.7064 18.0522 10.7064H17.4435C17.1696 10.6912 16.9565 10.4629 16.9717 10.189C16.987 9.93034 17.1848 9.73251 17.4435 9.71729H18.0522C18.3261 9.70208 18.5543 9.91512 18.5696 10.189C18.5848 10.4629 18.387 10.6912 18.113 10.7064Z" fill="white"/>
<path d="M13 10.3717C11.8435 10.3717 10.9 11.3152 10.9 12.4717C10.9 13.6282 11.8435 14.5565 13 14.5565C14.1565 14.5565 15.1 13.613 15.1 12.4565C15.1 11.3 14.1565 10.3717 13 10.3717Z" fill="#FCFAF3"/>
<defs>
<filter id="filter0_b" x="-4" y="-4" width="33" height="33" filterUnits="userSpaceOnUse" color-interpolation-filters="sRGB">
<feFlood flood-opacity="0" result="BackgroundImageFix"/>
<feGaussianBlur in="BackgroundImage" stdDeviation="2"/>
<feComposite in2="SourceAlpha" operator="in" result="effect1_backgroundBlur"/>
<feBlend mode="normal" in="SourceGraphic" in2="effect1_backgroundBlur" result="shape"/>
</filter>
</defs>
</svg>

<svg width="25" height="25" viewBox="0 0 25 25" fill="none"
    xmlns="http://www.w3.org/2000/svg">
    <g>
        <circle cx="12.5" cy="12.5" r="12.5" fill="#3F3F3F" fill-opacity=".8"/>
    </g>
    <path d="M18.326 8.348h-1.46l-.807-1.218a1.676 1.676 0 00-1.385-.73h-3.348c-.548 0-1.08.274-1.385.73l-.806 1.218H7.674A1.67 1.67 0 006 10.022v5.904A1.67 1.67 0 007.674 17.6h10.652A1.67 1.67 0 0020 15.926v-5.904a1.67 1.67 0 00-1.674-1.674zM13 16.23a3.773 3.773 0 01-3.774-3.774A3.76 3.76 0 0113 8.698a3.773 3.773 0 013.774 3.774A3.77 3.77 0 0113 16.23zm5.113-5.524H17.443a.494.494 0 010-.989h.61a.494.494 0 01.517.472.482.482 0 01-.457.517z" fill="#fff"/>
    <path d="M13 10.372c-1.156 0-2.1.943-2.1 2.1 0 1.156.944 2.085 2.1 2.085 1.156 0 2.1-.944 2.1-2.1a2.091 2.091 0 00-2.1-2.085z" fill="#FCFAF3"/>
</svg>
